X:93
T:Any thing you please. JGi.093
O:Tealby,Lincolnshire
M:2/4
L:1/8
Q:1/4=110
S:Joshua Gibbons MS,1823,Tealby,Lincs.
R:Country Dance
Z:VMP/R.Greig, 2009
K:C
(c>d) (ce)|(cA) (GE)|(Gc) de|{d}f>ed2|
c>d ce|cA GE|Gc d>e|c4:|
g>a gb|ac’ ge|c>d ce|d>e f>f|
g>a gb|(ac’) (ge)|c>d ce|{d}ddHd2|
c>d ce|cA GE|Gc de|{d}f>ed2|
c>d ce|cA GHE|Gc d>g|c4:|

